svg/material-icons/soup_kitchen/materialiconsoutlined/20px.svg

<svg xmlns="http://www.w3.org/2000/svg" width="20" height="20" viewBox="0 0 20 20"><path d="M4.96 11s.31-.42.31-1.15c0-.77-.77-2.19-.77-2.79 0-.32.04-.64.31-1.06h.98c-.26.42-.31.74-.31 1.06 0 .59.77 2.02.77 2.79 0 .73-.31 1.15-.31 1.15h-.98zm3.36 0s.31-.42.31-1.15c0-.77-.77-2.19-.77-2.79 0-.32.04-.64.3-1.06h-.98c-.26.42-.3.74-.3 1.06 0 .59.77 2.02.77 2.79 0 .73-.31 1.15-.31 1.15h.98zm2.37 0s.31-.42.31-1.15c0-.77-.77-2.19-.77-2.79 0-.31.04-.64.31-1.06h-.98c-.27.42-.31.74-.31 1.06 0 .59.77 2.02.77 2.79 0 .73-.31 1.15-.31 1.15h.98zm4.81-9c-1.16 0-2.11.88-2.24 2l-.94 8.4H3.5c-.28 0-.53.24-.5.52C3.25 15.77 5.59 18 8.4 18c2.78 0 5.07-2.18 5.36-4.99l.99-8.84a.75.75 0 0 1 .75-.67c.41 0 .75.34.75.75S16.2 5.3 16.2 5.3l1.48.19s.07-.47.07-1.24C17.75 3.01 16.74 2 15.5 2zM8.4 16.5c-1.63 0-3.07-1.08-3.65-2.6h7.28c-.57 1.54-1.99 2.6-3.63 2.6z"/></svg>

<svg xmlns="http://www.w3.org/2000/svg" enable-background="new 0 0 20 20" height="20" viewBox="0 0 20 20" width="20"><rect fill="none" height="20" width="20"/><g><path d="M4.96,11c0,0,0.31-0.42,0.31-1.15c0-0.77-0.77-2.19-0.77-2.79C4.5,6.74,4.54,6.42,4.81,6h0.98 C5.53,6.42,5.48,6.74,5.48,7.06c0,0.59,0.77,2.02,0.77,2.79c0,0.73-0.31,1.15-0.31,1.15H4.96z M8.32,11c0,0,0.31-0.42,0.31-1.15 c0-0.77-0.77-2.19-0.77-2.79C7.86,6.74,7.9,6.42,8.16,6H7.18C6.92,6.42,6.88,6.74,6.88,7.06c0,0.59,0.77,2.02,0.77,2.79 c0,0.73-0.31,1.15-0.31,1.15H8.32z M10.69,11c0,0,0.31-0.42,0.31-1.15c0-0.77-0.77-2.19-0.77-2.79c0-0.31,0.04-0.64,0.31-1.06H9.56 C9.29,6.42,9.25,6.74,9.25,7.06c0,0.59,0.77,2.02,0.77,2.79c0,0.73-0.31,1.15-0.31,1.15H10.69z M15.5,2c-1.16,0-2.11,0.88-2.24,2 l-0.94,8.4H3.5c-0.28,0-0.53,0.24-0.5,0.52C3.25,15.77,5.59,18,8.4,18c2.78,0,5.07-2.18,5.36-4.99l0.99-8.84 c0.04-0.38,0.36-0.67,0.75-0.67c0.41,0,0.75,0.34,0.75,0.75S16.2,5.3,16.2,5.3l1.48,0.19c0,0,0.07-0.47,0.07-1.24 C17.75,3.01,16.74,2,15.5,2z M8.4,16.5c-1.63,0-3.07-1.08-3.65-2.6h7.28C11.46,15.44,10.04,16.5,8.4,16.5z"/></g></svg>
